X:7794
T:Untitled Song Air
O:england
B:Joyce, P. W.; "Old Irish Folk Music and Songs"
R:song air
H:  From the singing of Alice Kenny, the same interesting old woman from
H:whom I took down the Ce\'o draidheachta.  See my Ancient Irish Music, p.42.
L:1/8
M:3/4
K:F
F2 FG B2|c2 c2 Bc|d2 cB GF|G2 F2 AB|
c2 d2 e2|f2 gf _ed|c2 _e2 d2|c4 AB|
c2 d2 e2|f2 gf _ed|c_e dc BG|G2 F2 Bc|
d2 _ec BG|c_e d2 cB|G2 F2 F2|F6||


